assets/img/cart_white.svg

<svg xmlns="http://www.w3.org/2000/svg" viewBox="0 0 18 18" enable-background="new 0 0 18 18"><style type="text/css">.st0{fill:#FFFFFF;}</style><path class="st0" d="M17.3 7.6c0-.8-.7-1.5-1.5-1.5h-2.4l-2.4-4.6c-.3-.5-.9-.7-1.3-.5-.5.2-.7.8-.4 1.4l2 3.8h-4.6l2-3.8c.3-.5.1-1.1-.3-1.4-.5-.3-1.1 0-1.4.5l-2.5 4.6h-2.3c-.9 0-1.5.7-1.5 1.5 0 .6.4 1.1.9 1.3l.9 7.3c0 .5.4.9 1 .9h11.1c.5 0 .9-.4 1-.9l.9-7.3c.5-.2.8-.7.8-1.3zm-2.4 8.6c0 .2-.1.4-.3.4h-11.2c-.2 0-.3-.1-.3-.3l-.9-7.2h13.6l-.9 7.1zm1.2-7.8c-.1 0-.2 0-.2.1h-13.999999999999998c-.4-.2-.6-.5-.6-.9 0-.5.4-.9.9-.9h2.1c-.2.5 0 1 .4 1.2.5.2 1.1 0 1.3-.5l.4-.7h5.3l.3.8c.3.5.9.7 1.3.5.4-.2.6-.7.4-1.2h2.1c.5 0 .9.4.9.9 0 .3-.2.6-.6.7zm-11.7 6.9v-5c0-.2.1-.3.3-.3.2 0 .3.1.3.3v5c0 .2-.1.3-.3.3s-.3-.1-.3-.3zm8.6 0v-5c0-.2.1-.3.3-.3s.3.1.3.3v5c0 .2-.1.3-.3.3s-.3-.1-.3-.3zm-2.9 0v-5c0-.2.1-.3.3-.3s.3.1.3.3v5c0 .2-.1.3-.3.3-.2 0-.3-.1-.3-.3zm-2.9 0v-5c0-.2.1-.3.3-.3.2 0 .3.1.3.3v5c0 .2-.1.3-.3.3-.1 0-.3-.1-.3-.3z"/></svg>

<?xml version="1.0" encoding="utf-8"?>
<!-- Generator: Adobe Illustrator 19.2.0, SVG Export Plug-In . SVG Version: 6.00 Build 0)  -->
<svg version="1.1" id="Layer_1" xmlns="http://www.w3.org/2000/svg" xmlns:xlink="http://www.w3.org/1999/xlink" x="0px" y="0px"
	 viewBox="0 0 18 18" style="enable-background:new 0 0 18 18;" xml:space="preserve">
<style type="text/css">
	.st0{fill:#FFFFFF;}
</style>
<g>
	<path class="st0" d="M17.3,7.6c0-0.8-0.7-1.5-1.5-1.5h-2.4L11,1.5C10.7,1,10.1,0.8,9.7,1C9.2,1.2,9,1.8,9.3,2.4l2,3.8H6.7l2-3.8
		C9,1.9,8.8,1.3,8.4,1C7.9,0.7,7.3,1,7,1.5L4.5,6.1H2.2c-0.9,0-1.5,0.7-1.5,1.5c0,0.6,0.4,1.1,0.9,1.3l0.9,7.3c0,0.5,0.4,0.9,1,0.9
		h11.1c0.5,0,0.9-0.4,1-0.9l0.9-7.3C17,8.7,17.3,8.2,17.3,7.6L17.3,7.6z M14.9,16.2L14.9,16.2c0,0.2-0.1,0.4-0.3,0.4H3.4
		c-0.2,0-0.3-0.1-0.3-0.3L2.2,9.1h13.6L14.9,16.2z M16.1,8.4L16.1,8.4c-0.1,0-0.2,0-0.2,0.1h-0.1H2.2H2.1H2H1.9
		C1.5,8.3,1.3,8,1.3,7.6c0-0.5,0.4-0.9,0.9-0.9h2.1c-0.2,0.5,0,1,0.4,1.2c0.5,0.2,1.1,0,1.3-0.5l0.4-0.7h5.3L12,7.5
		C12.3,8,12.9,8.2,13.3,8c0.4-0.2,0.6-0.7,0.4-1.2h2.1c0.5,0,0.9,0.4,0.9,0.9C16.7,8,16.5,8.3,16.1,8.4L16.1,8.4z M4.4,15.3v-5
		c0-0.2,0.1-0.3,0.3-0.3C4.9,10,5,10.1,5,10.3v5c0,0.2-0.1,0.3-0.3,0.3S4.4,15.5,4.4,15.3L4.4,15.3z M13,15.3v-5
		c0-0.2,0.1-0.3,0.3-0.3s0.3,0.1,0.3,0.3v5c0,0.2-0.1,0.3-0.3,0.3S13,15.5,13,15.3L13,15.3z M10.1,15.3v-5c0-0.2,0.1-0.3,0.3-0.3
		s0.3,0.1,0.3,0.3v5c0,0.2-0.1,0.3-0.3,0.3C10.2,15.6,10.1,15.5,10.1,15.3L10.1,15.3z M7.2,15.3v-5c0-0.2,0.1-0.3,0.3-0.3
		c0.2,0,0.3,0.1,0.3,0.3v5c0,0.2-0.1,0.3-0.3,0.3C7.4,15.6,7.2,15.5,7.2,15.3L7.2,15.3z"/>
</g>
</svg>
